style/icons/competition.svg

<svg width="50" height="83" viewBox="0 0 50 83" fill="none" xmlns="http://www.w3.org/2000/svg">
<mask id="mask0_153_5173" style="mask-type:luminance" maskUnits="userSpaceOnUse" x="32" y="32" width="18" height="18">
<path d="M32.6774 32.3929H49.3963V49.1119H32.6774V32.3929Z" fill="white"/>
</mask>
<g mask="url(#mask0_153_5173)">
<mask id="mask1_153_5173" style="mask-type:luminance" maskUnits="userSpaceOnUse" x="32" y="32" width="18" height="18">
<path d="M41.0381 32.3929C36.4218 32.3929 32.6774 36.1348 32.6774 40.7537C32.6774 45.37 36.4218 49.1119 41.0381 49.1119C45.6545 49.1119 49.3963 45.37 49.3963 40.7537C49.3963 36.1348 45.6545 32.3929 41.0381 32.3929Z" fill="white"/>
</mask>
<g mask="url(#mask1_153_5173)">
<path d="M41.0381 32.3929C36.4218 32.3929 32.6774 36.1348 32.6774 40.7537C32.6774 45.37 36.4218 49.1119 41.0381 49.1119C45.6545 49.1119 49.3963 45.37 49.3963 40.7537C49.3963 36.1348 45.6545 32.3929 41.0381 32.3929Z" stroke="#482F87" stroke-width="4.07041"/>
</g>
</g>
<mask id="mask2_153_5173" style="mask-type:luminance" maskUnits="userSpaceOnUse" x="0" y="32" width="17" height="18">
<path d="M0 32.3929H16.7189V49.1119H0V32.3929Z" fill="white"/>
</mask>
<g mask="url(#mask2_153_5173)">
<mask id="mask3_153_5173" style="mask-type:luminance" maskUnits="userSpaceOnUse" x="0" y="32" width="17" height="18">
<path d="M8.36078 32.3929C3.74446 32.3929 0 36.1348 0 40.7537C0 45.37 3.74446 49.1119 8.36078 49.1119C12.9771 49.1119 16.7189 45.37 16.7189 40.7537C16.7189 36.1348 12.9771 32.3929 8.36078 32.3929Z" fill="white"/>
</mask>
<g mask="url(#mask3_153_5173)">
<path d="M8.36078 32.3929C3.74446 32.3929 0 36.1348 0 40.7537C0 45.37 3.74446 49.1119 8.36078 49.1119C12.9771 49.1119 16.7189 45.37 16.7189 40.7537C16.7189 36.1348 12.9771 32.3929 8.36078 32.3929Z" stroke="#482F87" stroke-width="4.07041"/>
</g>
</g>
<path d="M24.698 2V18.1359M36.9834 11.5745L33.4298 17.7305M11.8905 12.1893L15.5369 18.2896" stroke="#F47950" stroke-width="3.05281" stroke-linecap="round"/>
<mask id="mask4_153_5173" style="mask-type:luminance" maskUnits="userSpaceOnUse" x="19" y="61" width="11" height="17">
<path d="M19.9574 61.3973H29.4656V77.7028H19.9574V61.3973Z" fill="white"/>
</mask>
<g mask="url(#mask4_153_5173)">
<mask id="mask5_153_5173" style="mask-type:luminance" maskUnits="userSpaceOnUse" x="19" y="61" width="11" height="17">
<path d="M21.4838 61.3973H27.9392C28.342 61.3973 28.7316 61.559 29.0178 61.8452C29.304 62.1314 29.4656 62.5209 29.4656 62.9237V76.1632C29.4656 76.566 29.304 76.9555 29.0178 77.2417C28.7316 77.5279 28.342 77.6896 27.9392 77.6896H21.4838C21.0784 77.6896 20.6888 77.5279 20.4026 77.2417C20.1164 76.9555 19.9574 76.566 19.9574 76.1632V62.9237C19.9574 62.5209 20.1164 62.1314 20.4026 61.8452C20.6888 61.559 21.0784 61.3973 21.4838 61.3973Z" fill="white"/>
</mask>
<g mask="url(#mask5_153_5173)">
<path d="M19.9574 61.3973H29.4656V77.7028H19.9574V61.3973Z" fill="#482F87"/>
</g>
</g>
<mask id="mask6_153_5173" style="mask-type:luminance" maskUnits="userSpaceOnUse" x="13" y="72" width="24" height="11">
<path d="M13.3057 72.8533H36.1514V82.4569H13.3057V72.8533Z" fill="white"/>
</mask>
<g mask="url(#mask6_153_5173)">
<mask id="mask7_153_5173" style="mask-type:luminance" maskUnits="userSpaceOnUse" x="13" y="72" width="24" height="11">
<path d="M15.3409 72.8533H34.0791C35.2054 72.8533 36.1143 73.7649 36.1143 74.8885V80.4217C36.1143 81.5453 35.2054 82.4569 34.0791 82.4569H15.3409C14.2173 82.4569 13.3057 81.5453 13.3057 80.4217V74.8885C13.3057 73.7649 14.2173 72.8533 15.3409 72.8533Z" fill="white"/>
</mask>
<g mask="url(#mask7_153_5173)">
<path d="M13.3057 72.8533H36.1143V82.4569H13.3057V72.8533Z" fill="#482F87"/>
</g>
</g>
<mask id="mask8_153_5173" style="mask-type:luminance" maskUnits="userSpaceOnUse" x="13" y="72" width="24" height="11">
<path d="M13.3057 72.8533H36.2018V82.5205H13.3057V72.8533Z" fill="white"/>
</mask>
<g mask="url(#mask8_153_5173)">
<mask id="mask9_153_5173" style="mask-type:luminance" maskUnits="userSpaceOnUse" x="13" y="72" width="24" height="11">
<path d="M15.3409 72.8533H34.0791C35.2027 72.8533 36.1143 73.7649 36.1143 74.8885V80.4217C36.1143 81.5453 35.2027 82.4569 34.0791 82.4569H15.3409C14.2173 82.4569 13.3057 81.5453 13.3057 80.4217V74.8885C13.3057 73.7649 14.2173 72.8533 15.3409 72.8533Z" fill="white"/>
</mask>
<g mask="url(#mask9_153_5173)">
<path d="M15.3409 72.8533H34.0791C35.2027 72.8533 36.1143 73.7649 36.1143 74.8885V80.4217C36.1143 81.5453 35.2027 82.4569 34.0791 82.4569H15.3409C14.2173 82.4569 13.3057 81.5453 13.3057 80.4217V74.8885C13.3057 73.7649 14.2173 72.8533 15.3409 72.8533Z" stroke="white" stroke-width="3.05281"/>
</g>
</g>
<mask id="mask10_153_5173" style="mask-type:luminance" maskUnits="userSpaceOnUse" x="8" y="26" width="34" height="42">
<path d="M8.3606 26.812H41.0061V67.1107H8.3606V26.812Z" fill="white"/>
</mask>
<g mask="url(#mask10_153_5173)">
<mask id="mask11_153_5173" style="mask-type:luminance" maskUnits="userSpaceOnUse" x="8" y="26" width="34" height="42">
<path d="M30.1172 66.1673C28.4503 66.7371 26.5423 67.1107 24.674 67.1107C22.8058 67.1107 21.0091 66.7901 19.3528 66.2203C19.3184 66.2044 19.2839 66.2044 19.2468 66.1859C13.0273 63.9095 8.44805 57.8966 8.3606 50.8715V30.4929C8.3606 28.5239 9.95325 26.9313 11.9222 26.9313H37.4444C39.4107 26.9313 41.0061 28.5239 41.0061 30.4929V50.8529C40.9186 57.9337 36.4083 63.9439 30.1172 66.1673Z" fill="white"/>
</mask>
<g mask="url(#mask11_153_5173)">
<path d="M41.006 67.1111H8.36053V26.9396H41.006V67.1111Z" fill="#482F87"/>
</g>
</g>
<mask id="mask12_153_5173" style="mask-type:luminance" maskUnits="userSpaceOnUse" x="16" y="35" width="17" height="17">
<path d="M16.528 35.9943H32.8733V51.6558H16.528V35.9943Z" fill="white"/>
</mask>
<g mask="url(#mask12_153_5173)">
<mask id="mask13_153_5173" style="mask-type:luminance" maskUnits="userSpaceOnUse" x="16" y="36" width="17" height="16">
<path d="M25.1567 36.3522L26.3836 40.1364C26.6645 41.003 27.4701 41.5886 28.3817 41.5886H32.3435C32.5581 41.5886 32.7489 41.7264 32.8152 41.9305C32.8814 42.1345 32.8099 42.3598 32.635 42.487L29.4285 44.8217C28.6918 45.3596 28.3844 46.3057 28.6653 47.1722L29.8922 50.9564C29.9585 51.1605 29.8843 51.3831 29.712 51.5103C29.5371 51.6375 29.3013 51.6348 29.129 51.5103L25.9199 49.173C25.1832 48.6377 24.1868 48.6377 23.4527 49.173L20.2435 51.5103C20.0713 51.6348 19.8354 51.6375 19.6605 51.5103C19.4883 51.3831 19.4141 51.1605 19.4803 50.9564L20.7073 47.1722C20.9882 46.3057 20.6808 45.3596 19.9441 44.8217L16.7349 42.487C16.5627 42.3598 16.4885 42.1345 16.5547 41.9305C16.6236 41.7264 16.8118 41.5886 17.0291 41.5886H20.9908C21.9024 41.5886 22.708 41.003 22.9889 40.1364L24.2159 36.3522C24.2822 36.1482 24.4703 36.0104 24.685 36.0104C24.8996 36.0104 25.0904 36.1482 25.1567 36.3522Z" fill="white"/>
</mask>
<g mask="url(#mask13_153_5173)">
<path d="M15.5024 34.8998H33.8987V52.4084H15.5024V34.8998Z" fill="#D7C1DC"/>
</g>
</g>
<mask id="mask14_153_5173" style="mask-type:luminance" maskUnits="userSpaceOnUse" x="7" y="25" width="35" height="44">
<path d="M7.75122 25.8977H41.8409V68.1256H7.75122V25.8977Z" fill="white"/>
</mask>
<g mask="url(#mask14_153_5173)">
<mask id="mask15_153_5173" style="mask-type:luminance" maskUnits="userSpaceOnUse" x="7" y="25" width="35" height="44">
<path d="M30.4115 67.1822C28.6625 67.7519 26.6591 68.1256 24.6981 68.1256C22.7397 68.1256 20.8529 67.8049 19.1145 67.2352C19.0774 67.2193 19.0403 67.2193 19.0032 67.2007C12.4762 64.9244 7.66911 58.9142 7.57635 51.8439V29.4779C7.57635 27.5089 9.16901 25.9163 11.138 25.9163H38.2794C40.2457 25.9163 41.841 27.5089 41.841 29.4779V51.8227C41.7482 58.9486 37.0153 64.9588 30.4115 67.1822Z" fill="white"/>
</mask>
<g mask="url(#mask15_153_5173)">
<path d="M30.4115 67.1822C28.6625 67.7519 26.6591 68.1256 24.6981 68.1256C22.7397 68.1256 20.8529 67.8049 19.1145 67.2352C19.0774 67.2193 19.0403 67.2193 19.0032 67.2007C12.4762 64.9244 7.66911 58.9142 7.57635 51.8439V29.4779C7.57635 27.5089 9.16901 25.9163 11.138 25.9163H38.2794C40.2457 25.9163 41.841 27.5089 41.841 29.4779V51.8227C41.7482 58.9486 37.0153 64.9588 30.4115 67.1822Z" stroke="white" stroke-width="3.05281"/>
</g>
</g>
</svg>

<svg xmlns="http://www.w3.org/2000/svg" width="50" height="83" fill="none"><mask id="a" width="18" height="18" x="32" y="32" maskUnits="userSpaceOnUse" style="mask-type:luminance"><path fill="#fff" d="M32.677 32.393h16.72v16.719h-16.72z"/></mask><g mask="url(#a)"><mask id="b" width="18" height="18" x="32" y="32" maskUnits="userSpaceOnUse" style="mask-type:luminance"><path fill="#fff" d="M41.038 32.393a8.36 8.36 0 1 0 0 16.721 8.36 8.36 0 0 0 0-16.721"/></mask><g mask="url(#b)"><path stroke="#482F87" stroke-width="4.07" d="M41.038 32.393a8.36 8.36 0 1 0 0 16.721 8.36 8.36 0 0 0 0-16.721Z"/></g></g><mask id="c" width="17" height="18" x="0" y="32" maskUnits="userSpaceOnUse" style="mask-type:luminance"><path fill="#fff" d="M0 32.393h16.719v16.719H0z"/></mask><g mask="url(#c)"><mask id="d" width="17" height="18" x="0" y="32" maskUnits="userSpaceOnUse" style="mask-type:luminance"><path fill="#fff" d="M8.36 32.393a8.36 8.36 0 1 0 0 16.721 8.36 8.36 0 0 0 0-16.721"/></mask><g mask="url(#d)"><path stroke="#482F87" stroke-width="4.07" d="M8.36 32.393a8.36 8.36 0 1 0 0 16.721 8.36 8.36 0 0 0 0-16.721Z"/></g></g><path stroke="#F47950" stroke-linecap="round" stroke-width="3.053" d="M24.698 2v16.136m12.285-6.561L33.43 17.73m-21.54-5.542 3.647 6.1"/><mask id="e" width="11" height="17" x="19" y="61" maskUnits="userSpaceOnUse" style="mask-type:luminance"><path fill="#fff" d="M19.957 61.397h9.509v16.306h-9.509z"/></mask><g mask="url(#e)"><mask id="f" width="11" height="17" x="19" y="61" maskUnits="userSpaceOnUse" style="mask-type:luminance"><path fill="#fff" d="M21.484 61.397h6.455a1.53 1.53 0 0 1 1.527 1.527v13.24a1.53 1.53 0 0 1-1.527 1.526h-6.455a1.526 1.526 0 0 1-1.526-1.526v-13.24a1.526 1.526 0 0 1 1.526-1.527"/></mask><g mask="url(#f)"><path fill="#482F87" d="M19.957 61.397h9.509v16.306h-9.509z"/></g></g><mask id="g" width="24" height="11" x="13" y="72" maskUnits="userSpaceOnUse" style="mask-type:luminance"><path fill="#fff" d="M13.306 72.853H36.15v9.604H13.306z"/></mask><g mask="url(#g)"><mask id="h" width="24" height="11" x="13" y="72" maskUnits="userSpaceOnUse" style="mask-type:luminance"><path fill="#fff" d="M15.34 72.853h18.74c1.125 0 2.034.912 2.034 2.035v5.534a2.034 2.034 0 0 1-2.035 2.035H15.341a2.036 2.036 0 0 1-2.035-2.035v-5.534c0-1.123.911-2.035 2.035-2.035Z"/></mask><g mask="url(#h)"><path fill="#482F87" d="M13.306 72.853h22.808v9.604H13.306z"/></g></g><mask id="i" width="24" height="11" x="13" y="72" maskUnits="userSpaceOnUse" style="mask-type:luminance"><path fill="#fff" d="M13.306 72.853h22.896v9.668H13.306z"/></mask><g mask="url(#i)"><mask id="j" width="24" height="11" x="13" y="72" maskUnits="userSpaceOnUse" style="mask-type:luminance"><path fill="#fff" d="M15.34 72.853h18.74c1.123 0 2.034.912 2.034 2.035v5.534a2.036 2.036 0 0 1-2.035 2.035H15.341a2.036 2.036 0 0 1-2.035-2.035v-5.534c0-1.123.911-2.035 2.035-2.035Z"/></mask><g mask="url(#j)"><path stroke="#fff" stroke-width="3.053" d="M15.34 72.853h18.74c1.123 0 2.034.912 2.034 2.035v5.534a2.036 2.036 0 0 1-2.035 2.035H15.341a2.036 2.036 0 0 1-2.035-2.035v-5.534c0-1.123.911-2.035 2.035-2.035Z"/></g></g><mask id="k" width="34" height="42" x="8" y="26" maskUnits="userSpaceOnUse" style="mask-type:luminance"><path fill="#fff" d="M8.36 26.812h32.646v40.299H8.361V26.812Z"/></mask><g mask="url(#k)"><mask id="l" width="34" height="42" x="8" y="26" maskUnits="userSpaceOnUse" style="mask-type:luminance"><path fill="#fff" d="M30.117 66.167c-1.667.57-3.575.944-5.443.944s-3.665-.32-5.321-.89c-.035-.017-.07-.017-.106-.035-6.22-2.277-10.799-8.29-10.886-15.315V30.493a3.56 3.56 0 0 1 3.561-3.562h25.522a3.56 3.56 0 0 1 3.562 3.562v20.36c-.087 7.08-4.598 13.09-10.889 15.314"/></mask><g mask="url(#l)"><path fill="#482F87" d="M41.006 67.111H8.361V26.94h32.645v40.17Z"/></g></g><mask id="m" width="17" height="17" x="16" y="35" maskUnits="userSpaceOnUse" style="mask-type:luminance"><path fill="#fff" d="M16.528 35.994h16.345v15.662H16.528z"/></mask><g mask="url(#m)"><mask id="n" width="17" height="16" x="16" y="36" maskUnits="userSpaceOnUse" style="mask-type:luminance"><path fill="#fff" d="m25.157 36.352 1.227 3.784a2.1 2.1 0 0 0 1.998 1.453h3.961a.496.496 0 0 1 .292.898l-3.206 2.335a2.1 2.1 0 0 0-.764 2.35l1.227 3.784a.497.497 0 0 1-.763.554l-3.21-2.337a2.1 2.1 0 0 0-2.466 0l-3.21 2.337a.497.497 0 0 1-.763-.554l1.227-3.784a2.1 2.1 0 0 0-.763-2.35l-3.21-2.335a.5.5 0 0 1-.18-.556.5.5 0 0 1 .475-.342h3.962a2.1 2.1 0 0 0 1.998-1.453l1.227-3.784a.496.496 0 0 1 .94 0Z"/></mask><g mask="url(#n)"><path fill="#D7C1DC" d="M15.502 34.9H33.9v17.508H15.502z"/></g></g><mask id="o" width="35" height="44" x="7" y="25" maskUnits="userSpaceOnUse" style="mask-type:luminance"><path fill="#fff" d="M7.751 25.898h34.09v42.228H7.75V25.898Z"/></mask><g mask="url(#o)"><mask id="p" width="35" height="44" x="7" y="25" maskUnits="userSpaceOnUse" style="mask-type:luminance"><path fill="#fff" d="M30.412 67.182c-1.75.57-3.753.944-5.714.944a18 18 0 0 1-5.584-.89c-.037-.017-.074-.017-.11-.035-6.528-2.277-11.335-8.287-11.428-15.357V29.478a3.56 3.56 0 0 1 3.562-3.562h27.141a3.56 3.56 0 0 1 3.562 3.562v22.345c-.093 7.126-4.826 13.136-11.43 15.36Z"/></mask><g mask="url(#p)"><path stroke="#fff" stroke-width="3.053" d="M30.412 67.182c-1.75.57-3.753.944-5.714.944a18 18 0 0 1-5.584-.89c-.037-.017-.074-.017-.11-.035-6.528-2.277-11.335-8.287-11.428-15.357V29.478a3.56 3.56 0 0 1 3.562-3.562h27.141a3.56 3.56 0 0 1 3.562 3.562v22.345c-.093 7.126-4.826 13.136-11.43 15.36Z"/></g></g></svg>
